X:1
T:St. Thomas (Webbe), 87.87.87
T:St. Thomas (Webbe), 87.87.87
T:Samuel Webbe, 1792
T:Public Domain Courtesy of the Cyber Hymnal™
C:Samuel Webbe, 1792
Z:Public Domain
Z:Courtesy of the Cyber Hymnal™
%%score ( 1 2 ) ( 3 4 )
L:1/8
Q:1/4=112
M:4/4
K:D
V:1 treble 
V:2 treble 
V:3 bass 
V:4 bass 
V:1
 [A,D]2 [CE]2 [DF]2 D2 | [A,E]2 [DF]2 [CG]2 [DF]2 | [DB]2 [DA]2 G2 [DF]2 | [DE]2 [CE]2 D4 x | %4
 [Fd]2 [Ec]2 [Dd]2 [DA]2 | [DB]2 [DA]2 [CG]2 [DF]2 | B2 z [Dd]2 [Ec]2 x | B2 z [CA]4 x | %8
 [DA]2 [EA]2 [DF]2 D2 | [CE]2 [DF]2 G2 [DF]2 | A2 z B2 (AG) x3 | [DF]2 [CE]2 D6 |] %12
V:2
 x6 D2 | x8 | x4 (DC) x2 | x4 D4 x | x8 | x8 | F3 (c2 E) x2 | E3 (B2 D) x2 | x6 D2 | x4 DC x2 | %10
 D3 (F2 C) (B,C) D2 | x4 D6 |] %12
V:3
 [D,F,]2 [A,,A,]2 [D,A,]2 [F,A,]2 | [C,A,]2 [D,A,]2 [E,A,]2 [D,A,]2 | G,2 [F,A,]2 (B,G,) [D,A,]2 | %3
 A,3 z G, [D,F,]4 | [D,A,]2 [E,G,]2 F,2 [D,F,]2 | G,2 [F,A,]2 [E,A,]2 [D,A,]2 | %6
 [B,,D]2 [^A,,C]2 [B,,B,]2 =A,2 | [E,A,]2 [E,,E,^G,]2 [A,,A,]4 | [F,A,]2 [C,A,]2 [D,A,]2 [F,A,]2 | %9
 [G,A,]2 [F,A,]2 [E,G,]2 [D,A,]2 | [F,A,]2 [D,A,]2 G,2 ([F,A,][G,B,]) x2 | A,2 z G, [D,F,]6 |] %12
V:4
 x8 | x8 | G,2 E,2 x4 | A,,2 A,,2 x5 | x4 F,2 x2 | G,2 x6 | x6 (C,D,) | x8 | x8 | x8 | x4 G,2 x4 | %11
 A,2 A,,2 x6 |] %12

